svgs/barrel/black.svg

<?xml version="1.0" encoding="UTF-8" standalone="no"?>
<svg
   version="1.0"
   width="122.376"
   height="54.5"
   id="svg2"
   xmlns="http://www.w3.org/2000/svg"
   xmlns:svg="http://www.w3.org/2000/svg"
   xmlns:rdf="http://www.w3.org/1999/02/22-rdf-syntax-ns#"
   xmlns:cc="http://creativecommons.org/ns#"
   xmlns:dc="http://purl.org/dc/elements/1.1/">
  <title
     id="title2985">Q25: Barrel</title>
  <metadata
     id="metadata3066">
    <rdf:RDF>
      <cc:Work
         rdf:about="">
        <dc:format>image/svg+xml</dc:format>
        <dc:type
           rdf:resource="http://purl.org/dc/dcmitype/StillImage" />
        <cc:license
           rdf:resource="http://creativecommons.org/publicdomain/zero/1.0/" />
        <dc:title>Q25: Barrel</dc:title>
      </cc:Work>
      <cc:Work
         rdf:about="">
        <dc:format>image/svg+xml</dc:format>
        <dc:type
           rdf:resource="http://purl.org/dc/dcmitype/StillImage" />
      </cc:Work>
      <cc:License
         rdf:about="http://creativecommons.org/publicdomain/zero/1.0/">
        <cc:permits
           rdf:resource="http://creativecommons.org/ns#Reproduction" />
        <cc:permits
           rdf:resource="http://creativecommons.org/ns#Distribution" />
        <cc:permits
           rdf:resource="http://creativecommons.org/ns#DerivativeWorks" />
      </cc:License>
    </rdf:RDF>
  </metadata>
  <defs
     id="defs4" />
  <path
     style="fill:#000407"
     d="M 104.40285,41.8107 102.41703,29.23386 96.45958,15.33313 87.19243,5.40405 75.27752,3.41823 34.89923,4.08017 l -6.6194,0.66194 -9.26715,7.28133 -5.95745,16.54848 -0.66194,14.56266 37.73054,-1.32388 4.63357,-7.28133 5.95746,-2.64775 5.29551,1.32387 4.63357,4.63358 1.32388,4.63357 z"
     id="path_fill_h12" />
  <path
     d="M 57.1875,0 C 51.6229,0 46.06494,0.16306 40,0.5 30.70251,1.01653 23.06822,2.77268 17.75,9.125 12.70475,15.15127 10.02437,24.4064 8.03125,39.1875 H 0 v 5.65625 h 49.03125 c 1.28732,5.53295 6.23327,9.65624 12.15625,9.65625 5.92495,0 10.87095,-4.12052 12.15625,-9.65625 H 114.812 V 39.25 h -7.46825 C 105.31897,24.38849 102.37012,15.06849 97.0625,9.0625 91.4773,2.7424 83.66891,1.01633 74.375,0.5 68.31006,0.16306 62.7521,0 57.1875,0 Z m 0,7 C 62.61469,7 68.04189,7.16899 74,7.5 c 8.70609,0.48367 13.8977,1.7576 17.8125,6.1875 3.63181,4.10968 6.50281,11.87657 8.46875,25.53125 L 73.34375,39.1875 c -1.2853,-5.53573 -6.2313,-9.65625 -12.15625,-9.65625 -5.92298,10e-6 -10.86893,4.1233 -12.15625,9.65625 H 43.5 C 42.46905,26.61289 39.80399,17.71765 33.6875,8.1875 35.64375,7.85571 37.82791,7.6415 40.375,7.5 46.33311,7.16899 51.76031,7 57.1875,7 Z m -30.375,3.46875 c 6.28429,9.15361 8.64265,16.50821 9.65625,28.71875 H 15.125 c 1.94217,-13.6797 4.58578,-21.4844 8,-25.5625 1.09857,-1.31218 2.30765,-2.34206 3.6875,-3.15625 z M 61.1875,34.5 c 4.14,0 7.5005,3.36 7.5005,7.5 0,4.14 -3.3605,7.5 -7.5005,7.5 -4.14,0 -7.4995,-3.36 -7.4995,-7.5 0,-4.14 3.3595,-7.5 7.4995,-7.5 z"
     id="path_stroke"
     style="fill:#000407;stroke:none" />
</svg>

<?xml version="1.0" encoding="UTF-8" standalone="no"?>
<svg
   version="1.0"
   width="114.8125"
   height="54.5"
   id="svg2"
   xmlns="http://www.w3.org/2000/svg"
   xmlns:svg="http://www.w3.org/2000/svg"
   xmlns:rdf="http://www.w3.org/1999/02/22-rdf-syntax-ns#"
   xmlns:cc="http://creativecommons.org/ns#"
   xmlns:dc="http://purl.org/dc/elements/1.1/">
  <title
     id="title2985">Q25: Barrel</title>
  <metadata
     id="metadata3066">
    <rdf:RDF>
      <cc:Work
         rdf:about="">
        <dc:format>image/svg+xml</dc:format>
        <dc:type
           rdf:resource="http://purl.org/dc/dcmitype/StillImage" />
        <cc:license
           rdf:resource="http://creativecommons.org/publicdomain/zero/1.0/" />
        <dc:title>Q25: Barrel</dc:title>
      </cc:Work>
      <cc:Work
         rdf:about="">
        <dc:format>image/svg+xml</dc:format>
        <dc:type
           rdf:resource="http://purl.org/dc/dcmitype/StillImage" />
      </cc:Work>
      <cc:License
         rdf:about="http://creativecommons.org/publicdomain/zero/1.0/">
        <cc:permits
           rdf:resource="http://creativecommons.org/ns#Reproduction" />
        <cc:permits
           rdf:resource="http://creativecommons.org/ns#Distribution" />
        <cc:permits
           rdf:resource="http://creativecommons.org/ns#DerivativeWorks" />
      </cc:License>
    </rdf:RDF>
  </metadata>
  <defs
     id="defs4" />
  <path
     style="fill:#000407"
     d="M 104.40285,41.8107 L 102.41703,29.23386 L 96.45958,15.33313 L 87.19243,5.40405 L 75.27752,3.41823 L 34.89923,4.08017 L 28.27983,4.74211 L 19.01268,12.02344 L 13.05523,28.57192 L 12.39329,43.13458 L 50.12383,41.8107 L 54.7574,34.52937 L 60.71486,31.88162 L 66.01037,33.20549 L 70.64394,37.83907 L 71.96782,42.47264 L 104.40285,41.8107 z "
     id="path_fill_h12" />
  <path
     d="M 57.1875,0 C 51.6229,0 46.06494,0.16306 40,0.5 C 30.70251,1.01653 23.06822,2.77268 17.75,9.125 C 12.70475,15.15127 10.02437,24.4064 8.03125,39.1875 L 0,39.1875 L 0,44.84375 L 49.03125,44.84375 C 50.31857,50.3767 55.26452,54.49999 61.1875,54.5 C 67.11245,54.5 72.05845,50.37948 73.34375,44.84375 L 114.8125,44.84375 L 114.8125,39.25 L 107.34375,39.25 C 105.31897,24.38849 102.37012,15.06849 97.0625,9.0625 C 91.4773,2.7424 83.66891,1.01633 74.375,0.5 C 68.31006,0.16306 62.7521,0 57.1875,0 z M 57.1875,7 C 62.61469,7 68.04189,7.16899 74,7.5 C 82.70609,7.98367 87.8977,9.2576 91.8125,13.6875 C 95.44431,17.79718 98.31531,25.56407 100.28125,39.21875 L 73.34375,39.1875 C 72.05845,33.65177 67.11245,29.53125 61.1875,29.53125 C 55.26452,29.53126 50.31857,33.65455 49.03125,39.1875 L 43.5,39.1875 C 42.46905,26.61289 39.80399,17.71765 33.6875,8.1875 C 35.64375,7.85571 37.82791,7.6415 40.375,7.5 C 46.33311,7.16899 51.76031,7 57.1875,7 z M 26.8125,10.46875 C 33.09679,19.62236 35.45515,26.97696 36.46875,39.1875 L 15.125,39.1875 C 17.06717,25.5078 19.71078,17.7031 23.125,13.625 C 24.22357,12.31282 25.43265,11.28294 26.8125,10.46875 z M 61.1875,34.5 C 65.3275,34.5 68.6875,37.86 68.6875,42 C 68.6875,46.14 65.3275,49.5 61.1875,49.5 C 57.0475,49.5 53.6875,46.14 53.6875,42 C 53.6875,37.86 57.0475,34.5 61.1875,34.5 z "
     id="path_stroke"
     style="fill:#000407;stroke:none" />
</svg>
